X:60
T:Mad Cap
M:2/4
L:1/8
B:Thompson's Compleat Collection of 200 Favourite Country Dances, vol. 3 (London, 1773)
Z:Transcribed and edited by Flynn Titford-Mock, 2007
Z:abc's:AK/Fiddler's Companion
K:A
c>ec>A | "tr"a3 f | e>c A>c | "tr"B3 d | c>ec>A | "tr"a3 f | e>dc>B | A4 :|
|: e>c Ae | "tr"a3f | g>bg>e | f>af>^d | e>BBG | F>ag>f | g>ef>^d | e3 d |
c>ec>A | a3 f | ecBA | B4 | c>ec>A | a2 f2 | edcB | A4 :|

